icons/assembly_point_fill.svg

<svg width="48" height="48" viewBox="0 0 48 48" fill="none" xmlns="http://www.w3.org/2000/svg">
<path fill-rule="evenodd" clip-rule="evenodd" d="M6.29289 6.29289C6.68342 5.90237 7.31658 5.90237 7.70711 6.29289L12 10.5858V8C12 7.44772 12.4477 7 13 7C13.5523 7 14 7.44772 14 8V14H8C7.44772 14 7 13.5523 7 13C7 12.4477 7.44772 12 8 12H10.5858L6.29289 7.70711C5.90237 7.31658 5.90237 6.68342 6.29289 6.29289Z" fill="black"/>
<path fill-rule="evenodd" clip-rule="evenodd" d="M41.7071 41.7071C41.3166 42.0976 40.6834 42.0976 40.2929 41.7071L36 37.4142V40C36 40.5523 35.5523 41 35 41C34.4477 41 34 40.5523 34 40V34L40 34C40.5523 34 41 34.4477 41 35C41 35.5523 40.5523 36 40 36H37.4142L41.7071 40.2929C42.0976 40.6834 42.0976 41.3166 41.7071 41.7071Z" fill="black"/>
<path fill-rule="evenodd" clip-rule="evenodd" d="M6.29289 41.7071C5.90237 41.3166 5.90237 40.6834 6.29289 40.2929L10.5858 36H8C7.44772 36 7 35.5523 7 35C7 34.4477 7.44772 34 8 34H14L14 40C14 40.5523 13.5523 41 13 41C12.4477 41 12 40.5523 12 40V37.4142L7.70711 41.7071C7.31658 42.0976 6.68342 42.0976 6.29289 41.7071Z" fill="black"/>
<path fill-rule="evenodd" clip-rule="evenodd" d="M41.7071 6.29289C42.0976 6.68342 42.0976 7.31658 41.7071 7.70711L37.4142 12H40C40.5523 12 41 12.4477 41 13C41 13.5523 40.5523 14 40 14L34 14V8C34 7.44772 34.4477 7 35 7C35.5523 7 36 7.44772 36 8V10.5858L40.2929 6.29289C40.6834 5.90237 41.3166 5.90237 41.7071 6.29289Z" fill="black"/>
<path d="M35.1 19.5C35.1 21.4338 33.5337 23 31.6 23C29.6662 23 28.1 21.4338 28.1 19.5C28.1 17.5662 29.6662 16 31.6 16C33.5337 16 35.1 17.5662 35.1 19.5Z" fill="black"/>
<path d="M20.1 19.5C20.1 21.4338 18.5337 23 16.6 23C14.6662 23 13.1 21.4338 13.1 19.5C13.1 17.5662 14.6662 16 16.6 16C18.5337 16 20.1 17.5662 20.1 19.5Z" fill="black"/>
<path d="M26.5 18.5C26.5 19.8813 25.3813 21 24 21C22.6187 21 21.5 19.8813 21.5 18.5C21.5 17.1187 22.6187 16 24 16C25.3813 16 26.5 17.1187 26.5 18.5Z" fill="black"/>
<path d="M25 28.8582C25 26.2925 28.9975 25 31 25C33.0025 25 37 26.2925 37 28.8582V31H25V28.8582Z" fill="black"/>
<path d="M11 28.8582C11 26.2925 14.9975 25 17 25C19.0025 25 23 26.2925 23 28.8582V31H11V28.8582Z" fill="black"/>
<path fill-rule="evenodd" clip-rule="evenodd" d="M28.0382 23.4573C27.8114 23.5407 27.5875 23.6292 27.3682 23.7229C26.3728 24.1483 25.3675 24.723 24.5866 25.4917C24.3774 25.6977 24.179 25.9235 24 26.1688C23.8211 25.9235 23.6226 25.6977 23.4135 25.4918C22.6325 24.723 21.6273 24.1483 20.6318 23.7229C20.4125 23.6292 20.1887 23.5407 19.9618 23.4573C21.256 22.7867 22.9204 22.45 24 22.45C25.0796 22.45 26.744 22.7867 28.0382 23.4573Z" fill="black"/>
</svg>

<svg
  xmlns="http://www.w3.org/2000/svg"
  width="24"
  height="24"
  viewBox="0 0 24 24"
  fill="none"
  stroke="currentColor"
  stroke-width="2"
  stroke-linecap="round"
  stroke-linejoin="round"
>
  <path
    fill-rule="evenodd"
    d="M6.293 6.293a1 1 0 0 1 1.414 0L12 10.586V8a1 1 0 1 1 2 0v6H8a1 1 0 1 1 0-2h2.586L6.293 7.707a1 1 0 0 1 0-1.414"
    clip-rule="evenodd"
  />
  <path
    fill-rule="evenodd"
    d="M41.707 41.707a1 1 0 0 1-1.414 0L36 37.414V40a1 1 0 1 1-2 0v-6h6a1 1 0 1 1 0 2h-2.586l4.293 4.293a1 1 0 0 1 0 1.414"
    clip-rule="evenodd"
  />
  <path
    fill-rule="evenodd"
    d="M6.293 41.707a1 1 0 0 1 0-1.414L10.586 36H8a1 1 0 1 1 0-2h6v6a1 1 0 1 1-2 0v-2.586l-4.293 4.293a1 1 0 0 1-1.414 0"
    clip-rule="evenodd"
  />
  <path
    fill-rule="evenodd"
    d="M41.707 6.293a1 1 0 0 1 0 1.414L37.414 12H40a1 1 0 1 1 0 2h-6V8a1 1 0 1 1 2 0v2.586l4.293-4.293a1 1 0 0 1 1.414 0"
    clip-rule="evenodd"
  />
  <path d="M35.1 19.5c0 1.934-1.566 3.5-3.5 3.5a3.5 3.5 0 0 1-3.5-3.5c0-1.934 1.566-3.5 3.5-3.5s3.5 1.566 3.5 3.5" />
  <path d="M20.1 19.5c0 1.934-1.566 3.5-3.5 3.5a3.5 3.5 0 0 1-3.5-3.5c0-1.934 1.566-3.5 3.5-3.5s3.5 1.566 3.5 3.5" />
  <path d="M26.5 18.5a2.5 2.5 0 1 1-5 0 2.5 2.5 0 1 1 5 0" />
  <path d="M25 28.858C25 26.293 28.997 25 31 25c2.002 0 6 1.293 6 3.858V31H25z" />
  <path d="M11 28.858C11 26.293 14.998 25 17 25c2.003 0 6 1.293 6 3.858V31H11z" />
  <path
    fill-rule="evenodd"
    d="M28.038 23.457q-.34.125-.67.266c-.995.425-2 1-2.781 1.769q-.317.309-.587.677a5.5 5.5 0 0 0-.587-.677c-.78-.769-1.786-1.344-2.781-1.77q-.33-.14-.67-.265c1.294-.67 2.958-1.007 4.038-1.007s2.744.337 4.038 1.007"
    clip-rule="evenodd"
  />
</svg>
